X: 4061
M: C|
L: 1/8
K: D
uA,2 !segno!|\
gfge fdcA | (3(Bcd) (AF) (FE) E2 |]
dcdB ADFB | ADFB ADFA |\
dcdB ADFA | (3(Bcd) (AF) FEEc |\
dCcD BDAD | BAFA Bcde |\
(3(fgf) (3(efe) dcBA | (3(GFE) (3(FED) B,DCE |]


